icon_installer/data/icons/scalable/actions/show-table-symbolic.svg

<?xml version="1.0" encoding="UTF-8"?>
<svg height="16px" viewBox="0 0 16 16" width="16px" xmlns="http://www.w3.org/2000/svg">
    <g fill="#2e3436">
        <path d="m 3 1 c -1.667969 0 -3.03125 1.363281 -3.03125 3.03125 v 7.9375 c 0 1.667969 1.363281 3.03125 3.03125 3.03125 h 9 c 1.667969 0 3.03125 -1.363281 3.03125 -3.03125 v -7.9375 c 0 -1.667969 -1.363281 -3.03125 -3.03125 -3.03125 z m 4 1 h 1 v 2 h -1 z m -5.03125 3 h 11.0625 v 6.96875 c 0 0.597656 -0.433594 1.03125 -1.03125 1.03125 h -9 c -0.597656 0 -1.03125 -0.433594 -1.03125 -1.03125 z m 0 0"/>
        <path d="m 6.898438 5 h 1.101562 v 9 h -1.101562 z m 0 0"/>
        <path d="m 1 7 h 13 v 1 h -13 z m 0 0"/>
        <path d="m 1 10 h 13 v 1 h -13 z m 0 0"/>
    </g>
</svg>

<svg xmlns="http://www.w3.org/2000/svg" width="16" height="16"><g fill="#2e3436"><path d="M3 1A3.04 3.04 0 0 0-.031 4.031v7.938A3.04 3.04 0 0 0 3 15h9a3.04 3.04 0 0 0 3.031-3.031V4.03A3.04 3.04 0 0 0 12 1zm4 1h1v2H7zM1.969 5H13.03v6.969c0 .597-.433 1.031-1.031 1.031H3c-.598 0-1.031-.434-1.031-1.031zm0 0"/><path d="M6.898 5H8v9H6.898zm0 0"/><path d="M1 7h13v1H1zm0 3h13v1H1zm0 0"/></g></svg>
